icons/desktop/12/svg/book-12.svg

<svg width="12" height="12" viewBox="0 0 12 12" fill="none" xmlns="http://www.w3.org/2000/svg">
<path d="M7.625 3.75C7.97018 3.75 8.25 4.02982 8.25 4.375C8.25 4.72018 7.97018 5 7.625 5H4.125C3.77982 5 3.5 4.72018 3.5 4.375C3.5 4.02982 3.77982 3.75 4.125 3.75H7.625Z" fill="black"/>
<path fill-rule="evenodd" clip-rule="evenodd" d="M5.875 0.75C6.77955 0.75 7.75235 0.779415 8.7832 0.852539L9.0127 0.879883C10.1406 1.06985 10.9999 2.04588 11 3.21973V7.37988C11 7.99396 10.7039 8.53316 10.25 8.87305V10.5078C10.2685 10.5058 10.2871 10.505 10.3057 10.5029C10.6487 10.4647 10.9578 10.7117 10.9961 11.0547C11.0343 11.3977 10.7873 11.7068 10.4443 11.7451C8.78526 11.9299 7.25189 11.999 5.875 11.999C4.9863 11.999 4.13638 11.9707 3.3291 11.9209L2.53613 11.8643C1.53097 11.7821 0.75 10.9492 0.75 9.93262V3.22559C0.750211 1.9857 1.69972 0.942369 2.94727 0.853516C3.86593 0.788557 4.84452 0.75 5.875 0.75ZM2.68359 9.24902C2.30609 9.24924 2.00021 9.55511 2 9.93262C2 10.2899 2.27297 10.5882 2.6377 10.6182L3.40625 10.6729C4.18895 10.7212 5.01311 10.749 5.875 10.749C6.84101 10.749 7.88637 10.7132 9 10.626V9.24902H2.68359ZM5.875 2C5.12534 2 4.40448 2.02147 3.71484 2.05859L3.03613 2.10059C2.45425 2.14201 2.00021 2.63004 2 3.22559V8.12598C2.21276 8.04541 2.4426 7.99907 2.68359 7.99902H9.125C9.47375 7.99902 9.75 7.72079 9.75 7.37988V3.21973C9.74986 2.63425 9.28942 2.14179 8.69434 2.09961C7.69536 2.02876 6.75232 2 5.875 2Z" fill="black"/>
</svg>

<!-- This Source Code Form is subject to the terms of the Mozilla Public
   - License, v. 2.0. If a copy of the MPL was not distributed with this
   - file, You can obtain one at http://mozilla.org/MPL/2.0/. -->
<svg xmlns="http://www.w3.org/2000/svg" width="12" height="12" fill="context-fill" fill-opacity="context-fill-opacity" viewBox="0 0 12 12">
    <path d="M7.625 3.75a.625.625 0 1 1 0 1.25h-3.5a.625.625 0 1 1 0-1.25z" />
    <path fill-rule="evenodd" d="M5.875.75c.905 0 1.877.03 2.908.103l.23.027A2.38 2.38 0 0 1 11 3.22v4.16c0 .614-.296 1.153-.75 1.493v1.635l.056-.005a.625.625 0 0 1 .138 1.242 41.3 41.3 0 0 1-7.115.176l-.793-.057A1.94 1.94 0 0 1 .75 9.933V3.226c0-1.24.95-2.284 2.197-2.372A42 42 0 0 1 5.875.75M2.684 9.249A.684.684 0 0 0 2 9.933c0 .357.273.655.638.685l.768.055A40 40 0 0 0 9 10.626V9.249zM5.875 2q-1.125.001-2.16.059l-.679.042A1.12 1.12 0 0 0 2 3.226v4.9c.213-.08.443-.127.684-.127h6.441a.62.62 0 0 0 .625-.62V3.22c0-.585-.46-1.077-1.056-1.12C7.695 2.03 6.752 2 5.875 2" clip-rule="evenodd" />
</svg>
